X: 7
T: Scatter The Mud
R: jig
M: 6/8
L: 1/8
K: Ador
|:eAA B2A|eAA ABd|eAA BAB|dBG GBd|
eAA BAA|eAA AGE|GAB Bge|dBA ABd:||
|:eaa egg|dBA ABd|eaa egg|dBG GBd|
eaa g2e |dBA AGE|GAB Bge|dBA ABd|
eaa egg|dBA ABd|eaa egg|dBG GBd|
eaf g2e|dBA AGE|GAB Bge|dBA ABd||


Tune 728	Setting 24651

